web/public/logo.svg

<?xml version="1.0" encoding="UTF-8" standalone="no"?>
<svg
   width="32"
   height="34"
   viewBox="0 0 32 34"
   fill="none"
   version="1.1"
   id="svg9"
   xml:space="preserve"
   xmlns="http://www.w3.org/2000/svg"
   xmlns:svg="http://www.w3.org/2000/svg"><defs
     id="defs9" /><path
     fill-rule="evenodd"
     clip-rule="evenodd"
     d="m 3.43265,20.7677 c 0.7257,0.7385 0.72569,1.9358 -3e-5,2.6742 l -0.03716,0.0378 c -0.72572,0.7385 -1.90234,0.7385 -2.628043,0 -0.7257063,-0.7385 -0.7256951,-1.9357 2.5e-5,-2.6742 l 0.037166,-0.0378 c 0.725722,-0.7385 1.902332,-0.7384 2.628042,0 z"
     fill="#B2DDFF"
     id="path1"
     style="fill:none;stroke:#000000;stroke-opacity:1" /><path
     fill-rule="evenodd"
     clip-rule="evenodd"
     d="m 12.1689,21.3375 c 0.7244,0.7398 0.7223,1.9371 -0.0048,2.6742 l -5.14748,5.219 C 6.2896,29.9678 5.11299,29.9657 4.38859,29.2259 3.66419,28.4861 3.66632,27.2888 4.39334,26.5517 l 5.14751,-5.219 c 0.72705,-0.7371 1.90365,-0.735 2.62805,0.0048 z"
     fill="#53B1FD"
     id="path2"
     style="fill:none;fill-opacity:1;stroke:#000000;stroke-opacity:1" /><path
     fill-rule="evenodd"
     clip-rule="evenodd"
     d="m 19.1551,30.3217 c 0.5693,-0.8689 1.723,-1.1037 2.577,-0.5244 l 0.1115,0.0756 c 0.8539,0.5793 1.0847,1.7533 0.5154,2.6223 -0.5693,0.8689 -1.7231,1.1037 -2.577,0.5244 L 19.6705,32.944 c -0.854,-0.5793 -1.0847,-1.7533 -0.5154,-2.6223 z"
     fill="#B2DDFF"
     id="path3"
     style="fill:none;stroke:#000000;stroke-opacity:1" /><path
     fill-rule="evenodd"
     clip-rule="evenodd"
     d="m 31.4184,20.6544 c 0.7257,0.7385 0.7257,1.9358 0,2.6742 l -2.5273,2.5717 c -0.7257,0.7385 -1.9024,0.7385 -2.6281,0 -0.7257,-0.7384 -0.7257,-1.9357 0,-2.6742 l 2.5273,-2.5717 c 0.7257,-0.7384 1.9024,-0.7384 2.6281,0 z"
     fill="#53B1FD"
     id="path4"
     style="fill:none;stroke:#000000;stroke-opacity:1" /><path
     fill-rule="evenodd"
     clip-rule="evenodd"
     d="m 31.4557,11.1427 c 0.7257,0.7385 0.7257,1.9358 0,2.6742 l -18.676,19.004 c -0.7257,0.7385 -1.9023,0.7385 -2.628,0 -0.72571,-0.7384 -0.72571,-1.9357 0,-2.6742 l 18.676,-19.004 c 0.7257,-0.7384 1.9023,-0.7384 2.628,0 z"
     fill="#1570EF"
     id="path5"
     style="fill:#ffffff;fill-opacity:1;stroke:#000000;stroke-opacity:1" /><path
     fill-rule="evenodd"
     clip-rule="evenodd"
     d="m 27.925,5.29994 c 0.7258,0.73846 0.7258,1.93574 0,2.6742 L 17.184,18.9038 c -0.7257,0.7385 -1.9023,0.7385 -2.628,0 -0.7257,-0.7385 -0.7257,-1.9357 0,-2.6742 L 25.297,5.29994 c 0.7257,-0.73846 1.9023,-0.73846 2.628,0 z"
     fill="#1570ef"
     id="path6" /><path
     fill-rule="evenodd"
     clip-rule="evenodd"
     d="m 22.256,1.59299 c 0.7262,0.73796 0.727,1.93524 0.0018,2.67419 L 8.45055,18.3358 C 7.72533,19.0748 6.54871,19.0756 5.82251,18.3376 5.09631,17.5996 5.09552,16.4024 5.82075,15.6634 L 19.6279,1.59478 C 20.3532,0.855827 21.5298,0.855022 22.256,1.59299 Z"
     fill="#1570EF"
     id="path7"
     style="fill:none;fill-opacity:1;stroke:#000000;stroke-opacity:1" /><path
     fill-rule="evenodd"
     clip-rule="evenodd"
     d="M 8.58225,6.09619 C 9.30671,6.83592 9.30469,8.0332 8.57772,8.77038 L 3.17006,14.2541 C 2.4431,14.9913 1.26649,14.9893 0.542025,14.2495 -0.182438,13.5098 -0.180413,12.3125 0.546548,11.5753 L 5.95421,6.09159 C 6.68117,5.3544 7.85778,5.35646 8.58225,6.09619 Z"
     fill="#53B1FD"
     id="path8"
     style="fill:none;stroke:#000000;stroke-opacity:1" /><path
     fill-rule="evenodd"
     clip-rule="evenodd"
     d="m 11.893,0.624023 c 1.0263,0 1.8583,0.846607 1.8583,1.890947 v 0.18909 c 0,1.04434 -0.832,1.89095 -1.8583,1.89095 -1.0263,0 -1.8583,-0.84661 -1.8583,-1.89095 V 2.51497 c 0,-1.04434 0.832,-1.890947 1.8583,-1.890947 z"
     fill="#B2DDFF"
     id="path9"
     style="fill:none;stroke:#000000;stroke-opacity:1" /></svg>

<svg width="32" height="34" viewBox="0 0 32 34" fill="none" xmlns="http://www.w3.org/2000/svg">
    <path fill-rule="evenodd" clip-rule="evenodd"
        d="M3.43265 20.7677C4.15835 21.5062 4.15834 22.7035 3.43262 23.4419L3.39546 23.4797C2.66974 24.2182 1.49312 24.2182 0.767417 23.4797C0.0417107 22.7412 0.0417219 21.544 0.767442 20.8055L0.804608 20.7677C1.53033 20.0292 2.70694 20.0293 3.43265 20.7677Z"
        fill="#B2DDFF" />
    <path fill-rule="evenodd" clip-rule="evenodd"
        d="M12.1689 21.3375C12.8933 22.0773 12.8912 23.2746 12.1641 24.0117L7.01662 29.2307C6.2896 29.9678 5.11299 29.9657 4.38859 29.2259C3.66419 28.4861 3.66632 27.2888 4.39334 26.5517L9.54085 21.3327C10.2679 20.5956 11.4445 20.5977 12.1689 21.3375Z"
        fill="#53B1FD" />
    <path fill-rule="evenodd" clip-rule="evenodd"
        d="M19.1551 30.3217C19.7244 29.4528 20.8781 29.218 21.7321 29.7973L21.8436 29.8729C22.6975 30.4522 22.9283 31.6262 22.359 32.4952C21.7897 33.3641 20.6359 33.5989 19.782 33.0196L19.6705 32.944C18.8165 32.3647 18.5858 31.1907 19.1551 30.3217Z"
        fill="#B2DDFF" />
    <path fill-rule="evenodd" clip-rule="evenodd"
        d="M31.4184 20.6544C32.1441 21.3929 32.1441 22.5902 31.4184 23.3286L28.8911 25.9003C28.1654 26.6388 26.9887 26.6388 26.263 25.9003C25.5373 25.1619 25.5373 23.9646 26.263 23.2261L28.7903 20.6544C29.516 19.916 30.6927 19.916 31.4184 20.6544Z"
        fill="#53B1FD" />
    <path fill-rule="evenodd" clip-rule="evenodd"
        d="M31.4557 11.1427C32.1814 11.8812 32.1814 13.0785 31.4557 13.8169L12.7797 32.8209C12.054 33.5594 10.8774 33.5594 10.1517 32.8209C9.42599 32.0825 9.42599 30.8852 10.1517 30.1467L28.8277 11.1427C29.5534 10.4043 30.73 10.4043 31.4557 11.1427Z"
        fill="#1570EF" />
    <path fill-rule="evenodd" clip-rule="evenodd"
        d="M27.925 5.29994C28.6508 6.0384 28.6508 7.23568 27.925 7.97414L17.184 18.9038C16.4583 19.6423 15.2817 19.6423 14.556 18.9038C13.8303 18.1653 13.8303 16.9681 14.556 16.2296L25.297 5.29994C26.0227 4.56148 27.1993 4.56148 27.925 5.29994Z"
        fill="#1570EF" />
    <path fill-rule="evenodd" clip-rule="evenodd"
        d="M22.256 1.59299C22.9822 2.33095 22.983 3.52823 22.2578 4.26718L8.45055 18.3358C7.72533 19.0748 6.54871 19.0756 5.82251 18.3376C5.09631 17.5996 5.09552 16.4024 5.82075 15.6634L19.6279 1.59478C20.3532 0.855827 21.5298 0.855022 22.256 1.59299Z"
        fill="#1570EF" />
    <path fill-rule="evenodd" clip-rule="evenodd"
        d="M8.58225 6.09619C9.30671 6.83592 9.30469 8.0332 8.57772 8.77038L3.17006 14.2541C2.4431 14.9913 1.26649 14.9893 0.542025 14.2495C-0.182438 13.5098 -0.180413 12.3125 0.546548 11.5753L5.95421 6.09159C6.68117 5.3544 7.85778 5.35646 8.58225 6.09619Z"
        fill="#53B1FD" />
    <path fill-rule="evenodd" clip-rule="evenodd"
        d="M11.893 0.624023C12.9193 0.624023 13.7513 1.47063 13.7513 2.51497V2.70406C13.7513 3.7484 12.9193 4.59501 11.893 4.59501C10.8667 4.59501 10.0347 3.7484 10.0347 2.70406V2.51497C10.0347 1.47063 10.8667 0.624023 11.893 0.624023Z"
        fill="#B2DDFF" />
</svg>
